X: 31368
T: Paddy O'Rafferty
R: jig
M: 6/8
K: Amajor
cAF E2 F|ABc BAB|cAF E2 F|ABA AFE|
cAF E2 F|ABc dcd|ecB c2 A|BAA AFE:|
Acc FBB|ABc dcB|Acc FBB|ABA AFE|
Acc FBB|ABc d2 f|ecB c2 A|BAA AFE:|

